X: 42043
T: Waltz For Pelle
R: waltz
M: 3/4
K: Gmajor
D2|:B4 B2|A3 B d2|D6|D2 E2 F2|G3 F G2|E3 F G2|B4 c2|A4 dc|
B4 B2|A3 B d2|D6|D2 E2 F2|G2 D2 B2|B3 A FA|1 G6-|G4 D2:|2 G6|G2 A2 B2||
c4 B2|A3 B G2|F6|F2 G2 A2|d4 c2|B4 A2|G4 F2|E2 A2 B2|
c4 B2|A3 B G2|F6|F2 E2 F2|G2 D2 B2|B3 A FA|1 G6|G2 A2 B2:|2 G6-|G4||

